icons/16px/maintenance.svg

<svg width="16" height="16" viewBox="0 0 16 16" fill="none" xmlns="http://www.w3.org/2000/svg">
<path d="M12.3615 2.57789C12.5621 2.37729 12.4906 2.04024 12.2085 2.01083C11.6296 1.9505 11.0294 2.14219 10.5858 2.58582C9.99154 3.18006 9.84939 4.05515 10.1593 4.78375L8.00321 6.93989L6.03164 4.96833L6.21712 4.78284C6.37333 4.62663 6.37333 4.37337 6.21712 4.21716L5.77859 3.77863L6.77444 2.78278C6.93065 2.62657 6.93212 2.36815 6.74268 2.25451C6.45624 2.08267 6.12237 2 5.77841 2C5.29874 2 4.83872 2.16076 4.49954 2.49994C4.4912 2.50828 4.48294 2.5167 4.47478 2.52519L2.78281 4.21716C2.6266 4.37337 2.6266 4.62663 2.78281 4.78284L3.00003 5.00007H2.32918C2.0365 5.00007 1.88992 5.35394 2.09688 5.5609L3.43917 6.90319C3.64613 7.11015 4 6.96357 4 6.67088V6.00003L4.21712 6.21716C4.37333 6.37337 4.6266 6.37337 4.78281 6.21716L4.97098 6.02899L6.94255 8.00055L2.12103 12.8221C1.96482 12.9783 1.96482 13.2315 2.12103 13.3878L2.61601 13.8827C2.77221 14.0389 3.02548 14.0389 3.18169 13.8827L7.6942 9.37022L7.69336 9.36938L9.10757 7.95517L9.10841 7.95601L11.2215 5.8429C11.9491 6.14995 12.8214 6.00706 13.4142 5.41425C13.8578 4.97061 14.0495 4.37045 13.9892 3.79153C13.9598 3.50938 13.6227 3.43795 13.4221 3.63855L12.5318 4.5289C12.5318 4.5289 12.5305 4.52741 12.528 4.52807L11.4756 3.47562C11.4765 3.47209 11.4757 3.47103 11.4726 3.47269L11.4697 3.46971L12.3615 2.57789Z" fill="black"/>
<path d="M10.1237 9.06038L9.06303 10.121L12.822 13.88C12.9782 14.0362 13.2315 14.0362 13.3877 13.88L13.8827 13.3851C14.0389 13.2289 14.0389 12.9756 13.8827 12.8194L10.1237 9.06038Z" fill="black"/>
</svg>

<?xml version="1.0" encoding="UTF-8"?>
<svg id="Layer_1" data-name="Layer 1" xmlns="http://www.w3.org/2000/svg" viewBox="0 0 16 16">
  <defs>
    <style>
      .cls-1 {
        stroke-width: 0px;
      }
    </style>
  </defs>
  <path class="cls-1" d="m12.3615,2.5779c.2006-.2006.1291-.5376-.153-.5671-.5789-.0603-1.1791.1314-1.6227.575-.5943.5942-.7364,1.4693-.4265,2.1979l-2.1561,2.1561-1.9716-1.9716.1855-.1855c.1562-.1562.1562-.4095,0-.5657l-.4385-.4385.9958-.9959c.1562-.1562.1577-.4146-.0318-.5283-.2864-.1718-.6203-.2545-.9643-.2545-.4797,0-.9397.1608-1.2789.4999-.0083.0083-.0166.0168-.0248.0253l-1.692,1.692c-.1562.1562-.1562.4095,0,.5657l.2172.2172h-.6709c-.2927,0-.4393.3539-.2323.5608l1.3423,1.3423c.207.207.5608.0604.5608-.2323v-.6708l.2171.2171c.1562.1562.4095.1562.5657,0l.1882-.1882,1.9716,1.9716-4.8215,4.8215c-.1562.1562-.1562.4094,0,.5657l.495.4949c.1562.1562.4095.1562.5657,0l4.5125-4.5125-.0008-.0008,1.4142-1.4142.0008.0008,2.1131-2.1131c.7276.3071,1.5999.1642,2.1927-.4286.4436-.4436.6353-1.0438.575-1.6227-.0294-.2821-.3665-.3536-.5671-.153l-.8903.8904s-.0013-.0015-.0038-.0008l-1.0524-1.0524c.0009-.0035.0001-.0046-.003-.0029l-.0029-.003.8918-.8918Zm-2.2378,6.4825l-1.0607,1.0606,3.759,3.759c.1562.1562.4095.1562.5657,0l.495-.4949c.1562-.1562.1562-.4095,0-.5657l-3.759-3.759Z"/>
</svg>
